docs/img/twitter.svg

<svg width="23" height="19" viewBox="0 0 23 19" fill="none" xmlns="http://www.w3.org/2000/svg">
	<path opacity="0.3" d="M8.319 18.251C7.32941 18.2492 6.34144 18.1706 5.364 18.016C3.94803 17.7389 2.58395 17.2426 1.321 16.545L0 15.823L1.43 15.353C2.994 14.839 3.945 14.52 5.122 14.02C4.5257 13.728 3.99477 13.3182 3.5613 12.8153C3.12782 12.3124 2.80081 11.7268 2.6 11.094L2.267 10.084L2.54 10.126C2.30808 9.89192 2.10005 9.63532 1.919 9.36C1.36263 8.5349 1.08251 7.55449 1.119 6.56L1.182 5.678L1.71 5.878C1.48679 5.45676 1.32579 5.00541 1.232 4.538C1.00636 3.36711 1.19814 2.15417 1.774 1.11L2.234 0.266002L2.849 1C4.67201 3.26725 7.298 4.74551 10.182 5.128C10.0575 4.34159 10.1495 3.53613 10.448 2.798C10.8104 1.9514 11.4314 1.24117 12.222 0.769002C13.1512 0.206716 14.2301 -0.0581151 15.314 0.010002C16.4392 0.0687421 17.5105 0.51052 18.35 1.262C18.7268 1.1597 19.0974 1.03583 19.46 0.891002C19.704 0.799002 19.98 0.691002 20.326 0.576002L21.6 0.137002L20.769 2.51C20.824 2.51 20.88 2.501 20.939 2.499L22.299 2.437L21.499 3.537C21.453 3.6 21.441 3.618 21.425 3.642C21.36 3.742 21.28 3.861 20.176 5.335C19.8927 5.72731 19.7551 6.20615 19.787 6.689C19.9083 8.43548 19.6701 10.1883 19.087 11.839C18.5778 13.2276 17.7383 14.4714 16.641 15.463C15.1859 16.7311 13.4176 17.5861 11.52 17.939C10.4668 18.1524 9.39458 18.2577 8.32 18.253L8.319 18.251Z" fill="#050505"/>
</svg>

<svg width="23" height="19" fill="none" xmlns="http://www.w3.org/2000/svg"><path opacity=".3" d="M8.319 18.251c-.99-.002-1.978-.08-2.955-.235a13.872 13.872 0 01-4.043-1.471L0 15.823l1.43-.47c1.564-.514 2.515-.833 3.692-1.333A4.913 4.913 0 012.6 11.094l-.333-1.01.273.042a4.962 4.962 0 01-.621-.766 4.7 4.7 0 01-.8-2.8l.063-.882.528.2a4.936 4.936 0 01-.478-1.34 5.1 5.1 0 01.542-3.428l.46-.844.615.734a11.319 11.319 0 007.333 4.128 4.386 4.386 0 01.266-2.33A4.363 4.363 0 0112.222.769 5.327 5.327 0 0115.314.01c1.125.059 2.197.5 3.036 1.252.377-.102.747-.226 1.11-.371.244-.092.52-.2.866-.315L21.6.137l-.831 2.373c.055 0 .111-.009.17-.011l1.36-.062-.8 1.1a2.456 2.456 0 00-.074.105c-.065.1-.145.219-1.249 1.693-.283.392-.42.871-.389 1.354a12.8 12.8 0 01-.7 5.15 9.113 9.113 0 01-2.446 3.624 10.8 10.8 0 01-5.121 2.476 15.767 15.767 0 01-3.2.314l-.001-.002z" fill="#050505"/></svg>
